X: 4
T: After The Battle Of Aughrim
R: polka
M: 2/4
L: 1/8
K: Ador
A/G/|EA AB/d/|ed cA|BG G/F/G/A/|BA/G/ ED|EA AB/d/|e/g/e/d/ ea/g/|ed B/e/d/B/|A3:|:f/g/|aa/g/ ef/g/|a/b/a/g/ ef/g/|a/b/a/f/ ge|dB Gf/g/|aa/g/ ef/g/|a/b/a/g/ ~ed|Be dB|A2 A:|


Tune 1308	Setting 14638

